X: 22378
T: Lad O'Beirne's
R: reel
M: 4/4
K: Eminor
BA|:G E3 BEGE|FD (3DDD FBAF|E3 F GFGA|Beed e2 fe|
d3 e dBAG|FD (3DDD ADFA|Beed B2 BA|GEFD E2 GB:|
Beed egfe|dB B2 ADFA|B3 c dedB|AD (3FED ADFD|
E3 D EFGE|FD (3DDD AFDA|Beed B2 BA|GEFD E3:|

